X:1
T:What Wilt Thou Have Me to Do?
T:William Howard Doane, 1877
T:What Wilt Thou Have Me to Do?
T:Public Domain
T:Public Domain
C:William Howard Doane, 1877
Z:Public Domain
%%score 1 ( 2 3 )
L:1/8
M:6/8
K:Eb
V:1 treble 
V:2 bass 
V:3 bass 
V:1
 [GB][FA][EG] [Ge][Bd][Ac] | [GB]2 [FA] [EG]3 | [FA][=EG][FA] [Ac][GB][FA] | ([EG]3 [GB]3) | %4
w: 1.~What wilt Thou have me to|do, O Lord,|What wilt Thou have me to|do? *|
w: 2.~What wilt Thou have me to|do, O Lord,|What wilt Thou have me to|do? *|
w: 3.~What wilt Thou have me to|do, O Lord,|What wilt Thou have me to|do? *|
 [GB][FA][EG] [Ge][Bd][Ac] | [Ac]2 [GB] [GB]3 | [Fd][Fc][Fd] [Fe]2 [Fd] | [Fc][Fd][Fc] [FB]3 | %8
w: Thou hast re- deemed me, Thy|right I own,|Thine are my pow’rs, my|Sav- ior, a- lone;|
w: Is it to la- bor? I’ll|glad- ly go;|Is it to wait? then|let it be so;|
w: Sing of Thy mer- cy who|died for me?|Tell the good news, sal-|va- tion is free?|
 [FA][=EG][FA] [Ac]2 [GB] | [GB]2 [EG] [Ge]3 ||"^Refrain" [Ge][Bd][Ac] [GB][FA][EG] | %11
w: Thou hast for me such|great things done,||
w: On- ly Thy will I|ask to know;|What wilt Thou have me to|
w: Say, shall I work or|sing for Thee?||
 ([DF]3 [DF]3) | [EB][EA][EG] [Ge][Bd][Ac] | [Ac]2 [GB] [GB]3 | [FA][EG][DF] [DB][Ec][Fd] | %15
w: ||||
w: do? *|What is the la- bor ap-|point- ed me?|Where shall I la- bor for|
w: ||||
 [Ge]6 |] %16
w: |
w: Thee?|
w: |
V:2
 [E,B,][E,B,][E,B,] [E,B,][E,E][E,E] | [E,E]2 [E,B,] [E,B,]3 | %2
 [B,,B,][B,,B,][B,,B,] [B,,B,][B,,B,][B,,B,] | [E,B,]6 | [E,B,][E,B,][E,B,] [E,B,][E,E][E,E] | %5
 [E,E]2 [E,E] [E,E]3 | [F,B,][F,=A,][F,B,] [F,C]2 [F,B,] | [F,=A,][F,B,][F,E] [B,,D]3 | %8
 [B,,B,][B,,B,][B,,B,] [B,,B,]2 [B,,B,] | [E,B,]2 [E,B,] [E,B,]3 || %10
 [E,B,][E,E][E,E] [E,E][D,B,][D,B,] | B,6 | [E,G,][E,C][E,B,] [E,B,][E,B,][E,E] | %13
 [E,E]2 [E,E] [E,E]3 | B,B,B, [B,,B,][B,,B,][B,,B,] | [E,B,]6 |] %16
V:3
 x6 | x6 | x6 | x6 | x6 | x6 | x6 | x6 | x6 | x6 || x6 | x6 | x6 | x6 | B,B,B, x3 | x6 |] %16

